X:1
T:Title
%%score { ( 1 3 ) | ( 2 4 ) }
L:1/8
M:4/4
K:Eb
V:1 treble nm="Grand Piano"
V:3 treble 
V:2 bass 
V:4 bass 
V:1
 z4 z2[Q:1/4=112] EF | G2 G2 z4 | G2 E4 G[B,FA] | B2 B2 z4 |[M:3/4] [EGB]6 |[M:1/4] [B,EG][EGB] | %6
[M:4/4] [Ac]2 c2 z4 | B2 B2 z4 | z4 c2 c2 |[M:3/4] [DB]6 |[M:1/4] cd |[M:4/4] z2 [Ge]4 z2 | %12
 [Ac]2 [GB]4 [Gc][Ge] | [Ad]2 [Ac]2 [GB]2 [B,FA]2 |[M:3/4] [EG]6 |[M:1/4] [B,EG][B,FA] | %16
[M:4/4] [EGB]2 G2 F2 E2 | E2 e4 [Ed][Ec] | [EB]2 [G,E]2 [B,EG]2 [A,DF]2 |[M:3/4] [G,B,E]6 |] %20
V:2
 z4 z2 [E,G,][E,A,E] | .[E,B,E]2 .[E,DE]2 [E,B,E]2 [E,CE]2 | [E,B,E]2 [E,G,B,]4 [E,B,E]E, | %3
 z B,[G,E]B, B,,2 B,,2 |[M:3/4] E,6 |[M:1/4] E,E, |[M:4/4] A,2[K:treble] .[A,CE]2 [A,EA]2 [A,EA]2 | %7
 z B,[G,E]B, E,2 [E,B,E]2 | [F,B,D]2 [F,B,D]2 .[F,B,E]2 .[F,G,E]2 |[M:3/4] [B,,B,]6 | %10
[M:1/4][K:treble] [B,A][B,A] |[M:4/4][K:bass] [E,B,]2 B,2 z2 [E,C][E,D] | %12
 [E,E]2 [E,E]4 [E,E][E,B,] | F,2 z2 z4 |[M:3/4] z2 B,2 B,2 |[M:1/4] E,E, | %16
[M:4/4] E,2 [E,B,E]2 [F,B,D]2 [G,B,_D]2 | [A,C]2 [A,,CE]4 [A,,B,][A,,A,] | [B,,G,]2 C,2 B,,2 B,,2 | %19
[M:3/4] E,6 |] %20
V:3
 x8 | z E z C G2 A2 | x8 | [EG]F z F [EGB]2 [FAB]2 |[M:3/4] x6 |[M:1/4] x2 |[M:4/4] ED z D c2 dc | %7
 [EG]F z F [EGB]2 G2 | F2 B2 z =A, z A, |[M:3/4] x6 |[M:1/4] x2 |[M:4/4] [Ge]2 z2 EB,[Ad][Ac] | %12
 x8 | x8 |[M:3/4] B,2 z2 z2 |[M:1/4] x2 |[M:4/4] x8 | x8 | x8 |[M:3/4] x6 |] %20
V:4
 x8 | x8 | x8 | E,2 E,2 z4 |[M:3/4] x6 |[M:1/4] x2 |[M:4/4] x2[K:treble] x6 | E,2 E,2 z4 | x8 | %9
[M:3/4] x6 |[M:1/4][K:treble] x2 |[M:4/4][K:bass] z2 E,4 z2 | x8 | B,2- [D,B,-]2 [E,B,]2 B,,2 | %14
[M:3/4] E,6 |[M:1/4] x2 |[M:4/4] x8 | x8 | x8 |[M:3/4] x6 |] %20

